X: 38853
T: Sunday Is My Weddingday
R: jig
M: 6/8
K: Eminor
c|BEE dEE|B[M:]EE FEF|DF/E/D FEF|GAB ded|
BEE dEE|def gfg|afd AFD|FEE E2c|
BEE dEE|BEE FEF|DF/E/D FEF|GAB ded|
BEE dEE|def gfg|afd AFD|FEE2<E2||
ede faf|ede fdB|AFA AFA|def gee|
aff gee|ede fdB|AFA dAF|FEE2<E2|
ed ef af|ede fdB|AFA AFA|def gee|
aff gee|ede fdB|AFA dAF|FEEE2||

